shared/images/iconfont/kb-iconfont-stellar-request-16.svg

<?xml version="1.0" encoding="UTF-8"?>
<svg width="16px" height="16px" viewBox="0 0 16 16" version="1.1" xmlns="http://www.w3.org/2000/svg" xmlns:xlink="http://www.w3.org/1999/xlink">
    <!-- Generator: sketchtool 49.3 (51167) - http://www.bohemiancoding.com/sketch -->
    <title>DD850A64-BCA0-4502-B78C-D7D01F826229</title>
    <desc>Created with sketchtool.</desc>
    <defs></defs>
    <g id="Colors,-icons" stroke="none" stroke-width="1" fill="none" fill-rule="evenodd">
        <g id="Icons-2" transform="translate(-520.000000, -306.000000)">
            <g id="kb-iconfont-receive" transform="translate(520.000000, 306.000000)">
                <rect id="icon-area" x="0" y="0" width="16" height="16"></rect>
                <path d="M10.6055245,12.3498849 L13.1675548,9.78785458 C13.8155158,9.13989355 14.8660682,9.13989355 15.5140292,9.78785458 C16.1619903,10.4358156 16.1619903,11.486368 15.5140292,12.134329 L12.4184132,15.2299451 C12.3367828,15.3115754 12.2487629,15.382922 12.1559633,15.4439847 C11.8263024,15.7783381 11.3680736,15.985595 10.8614374,15.985595 L4.68810324,15.985595 C4.43479755,15.985595 4.19359254,15.9337859 3.97450677,15.8401861 C3.04260331,15.7753036 2.15432534,15.2781184 1.6253723,14.4230231 C1.59390032,14.3721461 1.5639548,14.3203405 1.5355758,14.2676756 L0.144003934,11.6852401 C-0.157659704,11.1254222 0.028961897,10.4275045 0.569775239,10.092963 L2.25641524,9.04962512 C3.53929752,8.25604752 5.07294611,8.34937979 6.2388651,9.1520589 L9.13578097,9.1520589 C9.89951125,9.1520589 10.518637,9.77118462 10.518637,10.5349149 C10.518637,11.2986452 9.89951125,11.9177709 9.13578097,11.9177709 L8.21774432,11.9177709 L8.45059338,12.3498849 L10.6055245,12.3498849 Z" id="Rectangle-11" fill="#000000"></path>
                <path d="M12.5833274,3.02420025 L11.4167582,3.02420025 L11.4167582,0.900825605 C11.4167582,0.403313361 11.0134449,0 10.5159326,0 C10.0184204,0 9.61510704,0.403313361 9.61510704,0.900825605 L9.61510704,3.02420025 L8.44853788,3.02420025 C8.26637109,3.02496404 8.10260034,3.1353834 8.03358702,3.3039731 C7.96457369,3.47256279 8.00390776,3.66612447 8.13324892,3.79440614 L10.5159326,6.17708986 L12.8986164,3.79440614 C13.0279575,3.66612447 13.0672916,3.47256279 12.9982783,3.3039731 C12.9292649,3.1353834 12.7654942,3.02496404 12.5833274,3.02420025 Z" id="send-up-path" fill="#000000"></path>
            </g>
        </g>
    </g>
</svg>

<svg xmlns="http://www.w3.org/2000/svg" width="16" height="16" viewBox="0 0 16 16">
    <g fill="none" fill-rule="evenodd">
        <path d="M0 0h16v16H0z"/>
        <path fill="#000" d="M10.606 12.35l2.562-2.562a1.66 1.66 0 1 1 2.346 2.346l-3.096 3.096c-.081.082-.17.153-.262.214-.33.334-.788.542-1.295.542H4.688c-.253 0-.494-.052-.713-.146a3 3 0 0 1-2.44-1.572L.145 11.685a1.202 1.202 0 0 1 .426-1.592L2.256 9.05a3.608 3.608 0 0 1 3.983.102h2.897a1.383 1.383 0 1 1 0 2.766h-.918l.233.432h2.155zM12.583 3.024h-1.166V.901a.9.9 0 1 0-1.802 0v2.123H8.45a.45.45 0 0 0-.316.77l2.383 2.383 2.383-2.383a.45.45 0 0 0-.316-.77z"/>
    </g>
</svg>
